icon/cg/arrows-expand-right-alt.svg

<svg viewBox="0 0 24 24" fill="none" xmlns="http://www.w3.org/2000/svg" height="1em" width="1em">
  <path d="M13.8995 2.10052V4.10052H18.4852L12.707 9.87878L14.1212 11.293L19.8995 5.51471V10.1005H21.8995V2.10052H13.8995Z" fill="currentColor"/>
  <path d="M5.51468 19.8995H10.1005V21.8995H2.10046V13.8995H4.10046V18.4853L9.87872 12.707L11.2929 14.1213L5.51468 19.8995Z" fill="currentColor"/>
  <path d="M9.17154 7.75739L7.75732 9.1716L14.8284 16.2427L16.2426 14.8285L9.17154 7.75739Z" fill="currentColor"/>
</svg>

<svg width="24" height="24" fill="none" xmlns="http://www.w3.org/2000/svg"><path d="M13.9 2.1v2h4.585L12.707 9.88l1.414 1.414L19.9 5.515V10.1h2v-8h-8ZM5.515 19.9H10.1v2h-8v-8h2v4.585l5.778-5.778 1.414 1.414L5.515 19.9ZM9.172 7.757 7.757 9.172l7.071 7.07 1.415-1.414-7.071-7.07Z" fill="currentColor"/></svg>
